X:1
T:Title
%%score { ( 1 4 ) | ( 2 3 ) }
L:1/8
M:3/4
K:G
V:1 treble nm="Grand Piano"
V:4 treble 
V:2 treble 
V:3 treble 
V:1
 z2 z2[Q:1/4=112] D2 | D2 G2 B2 | B2 A2 c2 | c6 | B4 B2 | [GB]2 [FA]2 [Fc]2 | c2 B2 [CDA]2 | %7
[M:2/4] [G,B,DG]4 |[M:1/4] D2 |[M:3/4] D2 G2 B2 | B2 d2 d2 | [=Fd]6 | [Ec]4 [EA]2 | A2 G2 B2 | %14
 [DGB]4 [CFA]2 |[M:2/4] [G,B,DG]4 |[M:1/4] G2 |[M:3/4] A2 ^G2 A2 | c2 B2 A2 | G6 | B4 B2 | %21
 [GB]2 [FA]2 [GB]2 | [Ac]4 [GB]2 |[M:2/4] [FA]4 |[M:1/4] D2 |[M:3/4] D2 G2 B2 | B2 d2 d2 | [=Fd]6 | %28
 [Ec]4 [EA]2 | d2 B2 G2 | G2 F2 [CDA]2 |[M:2/4] [G,B,DG]4 |] %32
V:2
 z2 z2 [G,B,]2 | z2 D2 [G,DG]2 | D2 z2 z2 | [G,EG]6 | [G,DG]4 [G,DG]2 | [D,D]4 [D,A,]2 | %6
 A,2 z2 z2 |[M:2/4] G,,4 |[M:1/4] [G,B,]2 |[M:3/4] z2[K:treble] D2 [G,DG]2 | %10
 [DG]2 [B,=F]2 [G,B,F]2 | [B,,G,]6 | [C,G,]4 [C,C]2 | C2 B,2 [D,G,D]2 | D,4 D,2 |[M:2/4] G,,4 | %16
[M:1/4] B,2 |[M:3/4][K:treble] C2 B,2 C2 | E2 D2 C2 | B,6 | D4 [G,DG]2 | [D,D]4 [D,D]2 | %22
 [D,D]4 [D,D]2 |[M:2/4] [D,D]4 |[M:1/4] [G,B,]2 |[M:3/4] z2[K:treble] D2 [G,DG]2 | %26
 [DG]2 [B,=F]2 [G,B,F]2 | [B,,G,]6 | [C,G,]4 [C,C]2 | [B,D]2 [DG]2 [D,B,D]2 | [D,D]4 z2 | %31
[M:2/4] G,,4 |] %32
V:3
 x6 | [G,B,]4 z2 | [G,G]2- [G,CG]2 [G,EG]2 | x6 | x6 | x6 | D,2- [D,B,]2 D,2 |[M:2/4] x4 | %8
[M:1/4] x2 |[M:3/4] [G,B,]4[K:treble] z2 | G,4 z2 | x6 | x6 | [D,D]4 z2 | x6 |[M:2/4] x4 | %16
[M:1/4] x2 |[M:3/4][K:treble] x6 | x6 | x6 | x6 | x6 | x6 |[M:2/4] x4 |[M:1/4] x2 | %25
[M:3/4] [G,B,]4[K:treble] z2 | G,4 z2 | x6 | x6 | D,4 z2 | B,2 A,2 D,2 |[M:2/4] x4 |] %32
V:4
 x6 | x6 | x6 | x6 | x6 | x6 | F4 z2 |[M:2/4] x4 |[M:1/4] x2 |[M:3/4] x6 | x6 | x6 | x6 | x6 | x6 | %15
[M:2/4] x4 |[M:1/4] x2 |[M:3/4] x6 | x6 | x6 | x6 | x6 | x6 |[M:2/4] x4 |[M:1/4] x2 |[M:3/4] x6 | %26
 x6 | x6 | x6 | x6 | x6 |[M:2/4] x4 |] %32

